Sources/FrostedUI/Resources/Icons.xcassets/dollarCircleFilled16.imageset/dollar-circle-filled-16.svg

<svg width="16" height="16" viewBox="0 0 16 16" fill="none" xmlns="http://www.w3.org/2000/svg" data-fui-icon="true">
  <path
    d="M8 0C12.4183 0 16 3.58172 16 8C16 12.4183 12.4183 16 8 16C3.58172 16 0 12.4183 0 8C0 3.58172 3.58172 0 8 0ZM8.00391 3.25C7.58998 3.25029 7.25397 3.58602 7.25391 4V4.33887C6.01369 4.61613 5.25022 5.56077 5.25 6.5C5.25006 6.89052 5.34261 7.24772 5.53613 7.55664C5.72706 7.86123 5.9875 8.07408 6.25293 8.22559C6.75047 8.50951 7.37929 8.63474 7.84473 8.7334C8.37889 8.84663 8.75054 8.93325 9.00293 9.07715C9.11193 9.13935 9.16453 9.19506 9.19238 9.23926C9.21737 9.27915 9.24994 9.35312 9.25 9.5C9.2499 9.53184 9.23687 9.62791 9.0752 9.74219C8.90504 9.8623 8.57065 9.99413 8.00488 9.99414C7.84847 9.99411 7.55253 9.95094 7.23535 9.84668C6.91174 9.74026 6.66196 9.60133 6.53027 9.46973C6.23744 9.17708 5.76258 9.17711 5.46973 9.46973C5.1771 9.76258 5.17708 10.2374 5.46973 10.5303C5.83803 10.8985 6.33922 11.1309 6.7666 11.2715C6.92829 11.3246 7.09372 11.3665 7.25488 11.4014V11.8418C7.25495 12.2559 7.59074 12.5918 8.00488 12.5918C8.41884 12.5915 8.75482 12.2558 8.75488 11.8418V11.4268C9.89851 11.2211 10.7498 10.5386 10.75 9.5C10.7499 9.10956 10.6573 8.75224 10.4639 8.44336C10.273 8.13891 10.0124 7.92588 9.74707 7.77441C9.24953 7.49053 8.62067 7.36428 8.15527 7.26562C7.62126 7.15242 7.24943 7.06671 6.99707 6.92285C6.88773 6.86043 6.83538 6.80404 6.80762 6.75977C6.78265 6.71982 6.75005 6.64661 6.75 6.5C6.75049 6.3714 6.98738 5.75494 8.00488 5.75488C8.54074 5.75488 9.05494 5.78723 9.3291 6.33496C9.51427 6.7052 9.96461 6.85568 10.335 6.6709C10.7053 6.48561 10.8561 6.03447 10.6709 5.66406C10.1914 4.70556 9.38013 4.39971 8.75391 4.30176V4C8.75384 3.58584 8.41808 3.25 8.00391 3.25Z"
    fill="currentColor"
  />
</svg>

<svg xmlns="http://www.w3.org/2000/svg" width="16" height="16" fill="none" data-fui-icon="true" viewBox="0 0 16 16"><path fill="currentColor" d="M8 0a8 8 0 1 1 0 16A8 8 0 0 1 8 0m.004 3.25a.75.75 0 0 0-.75.75v.339C6.014 4.616 5.25 5.56 5.25 6.5c0 .39.093.748.286 1.057.191.304.452.517.717.669.497.284 1.126.409 1.592.507.534.114.906.2 1.158.344a.5.5 0 0 1 .19.162c.024.04.057.114.057.261 0 .032-.013.128-.175.242-.17.12-.504.252-1.07.252a2.8 2.8 0 0 1-.77-.147c-.323-.107-.573-.246-.705-.377a.75.75 0 0 0-1.06 1.06c.368.369.87.6 1.297.742.161.053.327.095.488.13v.44a.75.75 0 0 0 1.5 0v-.415c1.144-.206 1.995-.888 1.995-1.927 0-.39-.093-.748-.286-1.057a2 2 0 0 0-.717-.669c-.497-.283-1.126-.41-1.592-.508-.534-.114-.906-.2-1.158-.343a.5.5 0 0 1-.19-.163.47.47 0 0 1-.057-.26c0-.129.237-.745 1.255-.745.536 0 1.05.032 1.324.58a.75.75 0 0 0 1.342-.67c-.48-.96-1.29-1.265-1.917-1.363V4a.75.75 0 0 0-.75-.75"/></svg>
